!!!id: EG005
!!!page: 16-17
!!!COM: Anonymous
!!!LYR: Anonymous
!!!PTL@@FR: Chansons Populaires du Canada
!!!OTL@@FR: Descendez à l'ombre
!!!PUB: G. E. Desbarats
!!!YEM:
!!!PDT: 1865
!!!SMA:
!!!OMD:
!!!AGN-Laforte:
!!!AGN-type:
!!!AGN-rime:
**kern
*clefG2
*k[b-]
*F:
*M2/8
*
*
=1
8g
8b-/
=2
8a
8g
=3
8g
8f
=4
8d
16e
16f
!!LO:PB:g=original
=5
8.g
16f
=6
8g
8b-/
=7
8a
8g
=8
8gL
8fJ
=9
8g
8g
!!LO:PB:g=original
=10
[4f
=11
4f_
=12
8f]
!LO:TX:a:t=FIN.
!LO:TX:a:t=(eighth rest, top voice)
==||
8b-/
=13
8a
8g
=14
4f
=15
8b-L
8gJ
!!LO:PB:g=original
=16
8a
8b-/
=17
8g
8b-/
=18
8a
8g
=19
4f
=20
8b-L
8gJ
=21
8a
8b-/
!!LO:PB:g=original
=22
8g;
8d
=23
8g
8a
=24
8b-
8cc
=26
8b-/
8g
=27
4f
==||
..
!LO:TX:b:t=D.C.
=
*
*
=||
